X: 6
M: 3/4
L: 1/8
K: F
V: 1
|:\
c4 fd | {d2}c4 fd | {d}c2 BAGF | E>FGE F2 |\
|:\
c4 ac | {d}c2 BA B2 | B4 gB | {c}B2 AG A2 |\
V: 2 clef=bass middle=d
|:\
"F"f2 a2 "Bb"b2 | "F"f2 a2 "Bb"b2 | "F"a2 f2 "Bb"b2 | "C"c'2 c2 "F"f2 |\
"C"c>c c2 "F"f2 | "Edim"g>g g2 "F"a2 | "Bb"b2 "F"a2 gf | "C"c4 z2 :|
|:\
"F"a2 f2 "Dm7"d2 | "Gm"g6 | g2 "C7"e2 c2 | "F"f6 |\
z2 z2 "Bb"b2 | "Am"a2 "Em"g2 "F7"a2 | "Bb"b2 "F"c'2 "C"c2 | "F"F6 :|

